svg/u0038_20e3.svg

<svg viewBox="0 0 128 128" xmlns="http://www.w3.org/2000/svg">
  <g>
    <path d="M116.46,3.96h-104c-4.42,0-8,3.58-8,8v104c0,4.42,3.58,8,8,8h104c4.42,0,8-3.58,8-8v-104 C124.46,7.54,120.88,3.96,116.46,3.96z" fill="#427687"/>
    <path d="M122.16,6.26c-1.54-1.46-3.58-2.28-5.7-2.3h-104c-4.42,0-8,3.58-8,8v104 c0.02,2.12,0.84,4.16,2.3,5.7l16.8-16.8h76c3.26-0.01,5.89-2.64,5.9-5.9v-76L122.16,6.26z" fill="#8CAFBF"/>
    <path d="M85.06,47.46c0.06,3.12-0.81,6.18-2.5,8.8c-1.72,2.6-4.1,4.71-6.9,6.1c3.27,1.44,6.07,3.76,8.1,6.7 c1.89,2.84,2.87,6.19,2.8,9.6c0,5.9-2,10.6-6,14.1s-9.3,5.2-16,5.2s-12-1.7-16-5.2s-6-8.2-6-14c-0.02-3.45,0.99-6.83,2.9-9.7 c1.96-2.94,4.74-5.23,8-6.6c-2.8-1.39-5.18-3.5-6.9-6.1c-1.69-2.62-2.56-5.68-2.5-8.8c0-5.7,1.8-10.3,5.5-13.6s8.7-5,14.9-5 c6.2,0,11.3,1.7,15,5S85.06,41.76,85.06,47.46z M75.26,78.06c0.12-2.99-0.96-5.91-3-8.1c-2.05-2.07-4.89-3.16-7.8-3 c-2.91-0.15-5.74,0.94-7.8,3c-2,2-2.9,4.7-2.9,8.1c-0.12,2.91,0.92,5.76,2.9,7.9c1.9,2,4.6,3,8,3c2.92,0.16,5.78-0.89,7.9-2.9 C74.36,84.16,75.26,81.46,75.26,78.06z M73.86,47.86c0.11-2.63-0.78-5.2-2.5-7.2c-1.74-1.89-4.23-2.92-6.8-2.8 c-2.55-0.13-5.03,0.86-6.8,2.7c-1.77,2.05-2.66,4.7-2.5,7.4c-0.16,2.67,0.74,5.29,2.5,7.3c1.74,1.82,4.18,2.81,6.7,2.7 c2.55,0.13,5.03-0.86,6.8-2.7C73.04,53.22,73.97,50.57,73.86,47.86z" fill="#FAFAFA"/>
    <path d="M40.16,12.86c0-2.3-1.6-3-10.8-2.7c-7.7,0.3-11.5,1.2-13.8,4 s-2.9,8.5-3,15.3c0,4.8,0,9.3,2.5,9.3c3.4,0,3.4-7.9,6.2-12.3C26.66,17.76,40.16,15.86,40.16,12.86z" opacity="0.5" fill="#B4E1ED" enable-background="new "/>
  </g>
</svg>

<svg viewBox="0 0 128 128" xmlns="http://www.w3.org/2000/svg">
  <defs/>
  <path d="M116.46,3.96 L12.46,3.96 C8.04,3.96 4.46,7.54 4.46,11.96 L4.46,115.96 C4.46,120.38 8.04,123.96 12.46,123.96 L116.46,123.96 C120.88,123.96 124.46,120.38 124.46,115.96 L124.46,11.96 C124.46,7.54 120.88,3.96 116.46,3.96 Z" fill="#427687"/>
  <path d="M122.16,6.26 C120.62,4.8 118.58,3.98 116.46,3.96 L12.46,3.96 C8.04,3.96 4.46,7.54 4.46,11.96 L4.46,115.96 C4.48,118.08 5.3,120.12 6.76,121.66 L23.56,104.86 L99.56,104.86 C102.82,104.85 105.45,102.22 105.46,98.96 L105.46,22.96 L122.16,6.26 Z" fill="#8CAFBF"/>
  <path d="M85.06,47.46 C85.12,50.58 84.25,53.64 82.56,56.26 C80.84,58.86 78.46,60.97 75.66,62.36 C78.93,63.8 81.73,66.12 83.76,69.06 C85.65,71.9 86.63,75.25 86.56,78.66 C86.56,84.56 84.56,89.26 80.56,92.76 C76.56,96.26 71.26,97.96 64.56,97.96 C57.86,97.96 52.56,96.26 48.56,92.76 C44.56,89.26 42.56,84.56 42.56,78.76 C42.54,75.31 43.55,71.93 45.46,69.06 C47.42,66.12 50.2,63.83 53.46,62.46 C50.66,61.07 48.28,58.96 46.56,56.36 C44.87,53.74 44,50.68 44.06,47.56 C44.06,41.86 45.86,37.26 49.56,33.96 C53.26,30.66 58.26,28.96 64.46,28.96 C70.66,28.96 75.76,30.66 79.46,33.96 C83.16,37.26 85.06,41.76 85.06,47.46 Z M75.26,78.06 C75.38,75.07 74.3,72.15 72.26,69.96 C70.21,67.89 67.37,66.8 64.46,66.96 C61.55,66.81 58.72,67.9 56.66,69.96 C54.66,71.96 53.76,74.66 53.76,78.06 C53.64,80.97 54.68,83.82 56.66,85.96 C58.56,87.96 61.26,88.96 64.66,88.96 C67.58,89.12 70.44,88.07 72.56,86.06 C74.36,84.16 75.26,81.46 75.26,78.06 Z M73.86,47.86 C73.97,45.23 73.08,42.66 71.36,40.66 C69.62,38.77 67.13,37.74 64.56,37.86 C62.01,37.73 59.53,38.72 57.76,40.56 C55.99,42.61 55.1,45.26 55.26,47.96 C55.1,50.63 56,53.25 57.76,55.26 C59.5,57.08 61.94,58.07 64.46,57.96 C67.01,58.09 69.49,57.1 71.26,55.26 C73.04,53.22 73.97,50.57 73.86,47.86 Z" fill="#FAFAFA"/>
  <path d="M40.16,12.86 C40.16,10.56 38.56,9.86 29.36,10.16 C21.66,10.46 17.86,11.36 15.56,14.16 C13.26,16.96 12.66,22.66 12.56,29.46 C12.56,34.26 12.56,38.76 15.06,38.76 C18.46,38.76 18.46,30.86 21.26,26.46 C26.66,17.76 40.16,15.86 40.16,12.86 Z" fill="#B4E1ED" opacity="0.5"/>
</svg>
